X:1
T:LA TIMIDE
T:PIÈCES DE CLAVECIN EN CONCERTS
T:2. La Timide
T:  Rameau, Jean-Philippe 
T:IIIe Concert, RCT 9 
T:Oli 2020
T:Oli 2020
T:Oli 2020
T:Oli 2020
T:Oli 2020
C:Rameau, Jean-Philippe
Z:Oli 2020
%%score [ 1 2 { ( 3 5 ) | ( 4 6 ) } ]
L:1/8
Q:1/4=80
M:2/2
K:C
V:1 treble nm="Violon"
V:2 alto nm="Viole"
V:3 treble nm="Clavier"
V:5 treble 
V:4 bass 
V:6 bass 
V:1
"^Premier rondeau gracieux" (cB!plus!A^G) |: (AcBd) (cB!plus!A^G) | (Ac)(Bd) (^cdBc) | %3
 (d^cfe) (d=cBA) | (!plus!^G^F) E2 cB!plus!AG | (AcBd) (cB!plus!A^G) | (AcBd) (^cdBc) | %7
 (defB) !plus!B3 A |1 A4 (cB!plus!A^G)!fine! :|2 A4 z4 || z2 z c (ed)(cB) |{B} c4 z4 | %12
 z2 z c (ed)(cB) |{B} c4 z4 | z2 z c (ed)(cB) | f3 e{e} !plus!d3 c |{c} d2 !plus!B2 (ge)(cG) | %17
 (AB)(c>f){e} !plus!d3 c | c4 (cB!plus!A^G) | (AcBd) (cB!plus!A^G) | (Ac)(Bd) (^cdBc) | %21
 (d^cfe) (d=cBA) | (!plus!^G^F) E2 cB!plus!AG | (AcBd) (cB!plus!A^G) | (AcBd) (^cdBc) | %25
 (defB) !plus!B3 A | A2 z E ABc^F |{^F} G3 B{B} !plus!A3 G |{G} A2 !plus!^F2 B3 E | %29
{E} !plus!^D2 z (3(^F/G/A/) (A2 !plus!G/)FG/ | !plus!^F4 e2 (g/^f/)(e/^d/) |{^d} e2 z2 z4 | %32
 z4 e2 (g/^f/)(e/^d/) |{^d} e2 z2 z4 | z4 e2 (3(g/^f/e/) (^d/^c/) |{^c} ^d>Be>G !plus!^F3 E | %36
 E4 (cB!plus!A^G) | (AcBd) (cB!plus!A^G) | (Ac)(Bd) (^cdB=c) | (d^cfe) (d=cBA) | %40
 (!plus!^G^F) E2 cB!plus!AG | (AcBd) (cB!plus!A^G) | (AcBd) (^cdBc) | (defB) !plus!B3 A | A4 || %45
[K:A][Q:1/4=80]"^Deuxième rondeau gracieux" z4 |: z2 (e>a) (a2 !plus!g/f)g/ | %47
{g} (a6 g)(!plus!f/e/) |{e} f2{f} ga (e2 !plus!d)c | !plus!B2 E z z4 | z2 (e>a) (a2 !plus!g/f)g/ | %51
{g} (a6 g)(!plus!f/e/) |{e} f2{f} ga !plus!B3 A |1 A4 z4 :|2 A4 (3z (ea) (3!plus!aea || %55
 !plus!a4- (3(aea) (3(!plus!aea) | !plus!a8- | a2 z e !plus!e4- | e4- (e^d) e2- | %59
 e(^d/B/f/d/)a- a(g/e/)(b/c/)e- | e(3(^d/4c/4B/4)(2:3:2(f/d/)a- a(3(g/4f/4e/4)(2:3:2(b/B/)=d | %61
 c>^d{d}e>A{G} (!plus!F3 E/F/) | E4 z4 | z2 (e>a) (a2 !plus!g/f)g/ |{g} (a6 !plus!g)(f/e/) | %65
{e} f2{f} ga (e2 !plus!d)c | !plus!B2 E z z4 | z2 (e>a) (a2 !plus!g/f)g/ |{g} (a6 !plus!g)(f/e/) | %69
{e} f2{f} ga !plus!B3 A | A4 z4 | z c (!plus!c3/2B/4c/4) !plus!c4 | z4 z c (!plus!c3/2B/4c/4) | %73
 d4 z B (!plus!B3/2A/4B/4) | c4 z A (!plus!A3/2G/4A/4) | B4 z G (!plus!G3/2F/4G/4) | %76
 A2 (A3/2B/4c/4) (c3 !plus!B/A/) | G4 c4 | ^e4 g4 | c6 f>e | (c3 !plus!B/)A/ !plus!G3 F | F4 z4 | %82
 z2 (e>a) (a2 !plus!g/f)g/ |{g} (a6 !plus!g)(f/e/) |{e} f2{f} ga (e2 !plus!d)c | !plus!B2 E z z4 | %86
 z2 (e>a) (a2 !plus!g/f)g/ |{g} (a6 !plus!g)(f/e/) |{e} f2{f} ga !plus!B3 A | A4 |] %90
V:2
 (ED!plus!CB,) |: (CEDF) (ED!plus!CB,) | (CEDF) (EFDE) | (FED^C) (FED=C) | %4
 !plus!B,4 (ED!plus!CB,) | (CEDF) (ED!plus!CB,) | (CEDF) (EFDE) | (FEDF) E2 E,2 |1 %8
 A,4 (ED!plus!CB,) :|2 A,4 ([A,C][B,D])([CE][DF]) || [EG]G,CE, F,2 G,2 | %11
 (C,C)(E,C) (F,C) (!plus!D3/2C/4D/4) | (EG,)(CE,) F,2 G,2 | (C,C)(E,C) (F,C) (!plus!D3/2C/4D/4) | %14
 (EG,)(CE) (GF)(DE) | (C2 !plus!B,)C G,3 A, | (!plus!B,A,)(G,F,) (E,G,)(CE) | %17
 (ED)(CG,)[K:bass] G,2 G,,2 | C,4[K:alto] (ED!plus!CB,) | (CEDF) (ED!plus!CB,) | (CE)(DF) (EFDE) | %21
 (FED^C) (FED=C) | !plus!B,4 (ED!plus!CB,) | (CEDF) (ED!plus!CB,) | (CEDF) (EFDE) | %25
 (FEDF) !plus!E2 E,2 |[K:bass] A,E,A,B, C^G,A,^D, | E,B,ED [CE]2 [B,D]2 | [A,C]4 [G,B,]4 | %29
 [^F,A,]2 !plus!^D,2 E,2 E,,2 | B,,4 [G,B,]2 [A,C]2 | [G,B,]4 z4 | z4 [G,B,]2 [A,C]2 | [G,B,]4 z4 | %34
 z4 z2 z z/ G,/ | ^F,2 E,2 B,2 B,,2 | E,4[K:alto] (ED!plus!CB,) | (CEDF) (ED!plus!CB,) | %38
 (CEDF) (EFDE) | (FED^C) (FED=C) | !plus!B,4 (ED!plus!CB,) | (CEDF) (ED!plus!CB,) | (CEDF) (EFDE) | %43
 (FEDF) E2 E,2 | A,4 ||[K:A] z4 |: (A,B,)(CA,) B,2 (EE,) | (F,F)(!plus!ED) (CD)(EC) | %48
 (DC)(!plus!B,A,) !plus!G,3 A, | (E,D)(!plus!CB,) A,4 |[K:bass] (A,,B,,)(C,A,,) B,,2 (E,E,,) | %51
 (F,,F,)(!plus!E,D,) (C,D,)(E,C,) | (D,C,)(!plus!B,,A,,) E,2 E,,2 |1 A,,4 z4 :|2 %54
 A,,E,A,C !plus!A,4- || A,A,CE !plus!C4- | CCEA EA,Ac | !plus!A4 (3z (cB) (3(AG)F | %58
 (3z (BA) (3(GF)E (A2 !plus!G>)A |{G} !plus!F3 B !plus!B4- | !plus!B8- | %61
 B>A(G!plus!F/E/) !plus!^D3 E | E4 z4 | (A,B,)(CA,) B,2 (EE,) | (F,F)(!plus!ED) (CD)(EC) | %65
 (DC)(!plus!B,A,) !plus!G,3 A, | (E,D)(!plus!CB,) A,4 |[K:bass] (A,,B,,)(C,A,,) B,,2 (E,E,,) | %68
 (F,,F,)(!plus!E,D,) (C,D,)(E,C,) | (D,C,)(!plus!B,,A,,) E,2 E,,2 | A,,4[K:alto] z4 | %71
 z A (!plus!A3/2G/4A/4) A4 | z4 z A (!plus!A3/2G/4A/4) | B4 z G (!plus!G3/2F/4G/4) | %74
 A4 z F (!plus!F3/2^E/4F/4) | G4 z ^E (!plus!E3/2^D/4E/4) | F2 (F3/2G/4A/4) (A3 !plus!G/F/) | %77
 !plus!^E4 z4 | C4 ^E4 | A6 (C>F) | %80
 (10:16:10(F/4E/4D/4C/4B,/4A,/4G,/4F,/4^E,/4F,/4) C,2 !plus!^E2 |{^E} F4 z4 | %82
 (A,B,)(CA,) B,2 (EE,) | (F,F)(!plus!ED) (CD)(EC) | (DC)(!plus!B,A,) !plus!G,3 A, | %85
 (E,D)(!plus!CB,) A,4 |[K:bass] (A,,B,,)(C,A,,) B,,2 (E,E,,) | (F,,F,)(!plus!E,D,) (C,D,)(E,C,) | %88
 (D,C,)(!plus!B,,A,,) E,2 E,,2 | A,,4 |] %90
V:3
 [A,C][B,D][CE][DF] |: [CE][A,C][B,D][^G,B,] [A,C][B,D][CE][DF] | [CE][A,C][B,D][^G,B,] [A,^CE]4 | %3
 A3 G [A,DF][CE][B,D][A,C] | P[^G,B,]4 [A,C][B,D][CE][DF] | %5
 [CE][A,C][B,D][^G,B,] [A,C][B,D][CE][DF] | [CE][A,C][B,D][^G,B,] [A,^CE]4 | %7
 A3 A [B,EA]2 P^G3/2^F/4G/4 |1 [A,CEA]4 [A,C][B,D][CE][DF] :|2 [A,CEA]4 C[B,D][CE][DF] || %10
 [EG]3 G (GF)(ED) | E3 G PA3 G/A/ | [EG]3 G (GF)(ED) | E3 G PA3 G/A/ | G3 G cAGC | %15
 (C2 B,)[CEG] [DG]3 [CD^F] | [B,DG]4 (Gc-e-g-) | [Aceg][Bdf] ed/c/ c2 PB3/2A/4B/4 | %18
 [EGc]4 [A,C][B,D][CE][DF] | [CE][A,C][B,D][^G,B,] [A,C][B,D][CE][DF] | %20
 [CE][A,C][B,D][^G,B,] [A,^CE]4 | A3 G [A,DF][CE][B,D][A,C] | P[^G,B,]4 [A,C][B,D][CE][DF] | %23
 [CE][A,C][B,D][^G,B,] [A,C][B,D][CE][DF] | [CE][A,C][B,D][^G,B,] [A,^CE]4 | %25
 A3 A [B,EA]2 P^G3/2^F/4G/4 | [CEA]3 E ABc^F | G3 B PA3 G | A2 ^F2 B3 E | %29
 P^D2 z (3^F/G/A/ (A2 PG/F)G/ | P^F4 B2 c2 | B3 B PA3 B | PG2 ^F z B2 c2 | B3 B A3 B | %34
 PG2 ^F z b2 (a/g/)(^f/e/) | a>^f g3/2f/4e/4 P^d3 e | [^GBe]4 [A,C][B,D][CE][DF] | %37
 [CE][A,C][B,D][^G,B,] [A,C][B,D][CE][DF] | [CE][A,C][B,D][^G,B,] [A,^CE]4 | %39
 A3 G [A,DF][CE][B,D][A,C] | P[^G,B,]4 [A,C][B,D][CE][DF] | %41
 [CE][A,C][B,D][^G,B,] [A,C][B,D][CE][DF] | [CE][A,C][B,D][^G,B,] [A,^CE]4 | %43
 A3 A [B,EA]2 P^G3/2^F/4G/4 | [A,CEA]4 ||[K:A] [Ac][Bd][ce][df] |: %46
 [ce]2 [df][ce] P[Bd][Ac][Bd][Ge] | P[Ac][GB][Ac][Bd] [ce]3 [ce] | [FA][FA][Gd][Ac] PB3 c | %49
 PGF E2 [Ac][Bd][ce][df] | [ce]2 [df][ce] P[Bd][Ac][Bd][Ge] | P[Ac][GB][Ac][Bd] [ce]3 [ce] | %52
 [FA]2 [Gd][Ac] P[GB]3 A |1 !/![A,CEA]4 [Ac][Bd][ce][df] :|2 AA,CE PC4- || CEAc PA4- | %56
 x4 P[Ac][EA][Ac][ce] | P[EAc]6 z c | PB3/2A/4B/4 cG A2 GA | %59
 (G PF2) [FAB^d] ([AB-d] [GBe]2) [B,EG] | ([B,EG] [^DF]2) [FAB^d] ([AB-d] [GBe]2) [B,EGB] | %61
 ([CEGB]3 P[FA]/)[EG]/ P[^DF]3 E | [G,B,E]4 [Ac][Bd][ce][df] | [ce]2 [df][ce] P[Bd][Ac][Bd][Ge] | %64
 P[Ac][GB][Ac][Bd] [ce]3 [ce] | [FA][FA][Gd][Ac] PB3 c | PGF E2 [Ac][Bd][ce][df] | %67
 [ce]2 [df][ce] P[Bd][Ac][Bd][Ge] | P[Ac][GB][Ac][Bd] [ce]3 [ce] | [FA]2 [Gd][Ac] P[GB]3 A | %70
 !/![A,CEA]4 agPf^e | f2 x2 agPf^e | f2 x2 z2 z [A,CF] | Fa [dfb]a [deg]2 x2 | %74
[I:staff +1] [A,CE][I:staff -1]g [ca]g [cdf]2 x2 | %75
[I:staff +1] [G,B,D][I:staff -1]g [dg]f [Bc^e]2 x2 | %76
[I:staff +1] [F,A,C]2 [A,C]>[I:staff -1]F P^E3 F | x8 | x8 | x8 | %80
 (A,/C/D/F/D/B,/G,/F/) [G,CF]2 [G,B,C^E]2 | [A,CF]4 [Ac][Bd][ce][df] | %82
 [ce]2 [df][ce] P[Bd][Ac][Bd][Ge] | P[Ac][GB][Ac][Bd] [ce]3 [ce] | [FA][FA][Gd][Ac] PB3 c | %85
 PGF E2 [Ac][Bd][ce][df] | [ce]2 [df][ce] P[Bd][Ac][Bd][Ge] | P[Ac][GB][Ac][Bd] [ce]3 [ce] | %88
 [FA]2 [Gd][Ac] P[GB]3 A | !/![A,CEA]4 |] %90
V:4
 [A,,,A,,]4 |: [A,,,A,,]4 [A,,,A,,]4 | [A,,,A,,]4 [A,,E,=G,]4 | F,E,D,^C, [D,,D,]4 | %4
 [E,,E,]D,C,B,, [A,,,A,,]4 | [A,,,A,,]4 [A,,,A,,]4 | [A,,,A,,]4 [A,,E,=G,]4 | %7
 F,[E,G,] [D,F,]D,, z2 E,2 |1 A,,4 [A,,,A,,]4 :|2 A,,E,^F,^G, A,2 P=G,F,, || (E,G,C-E,) C C2 B, | %11
 (C,C)(E,C-) CC D2 | (E,G,C-E,) C C2 B, | (C,C)(E,C-) CC D2 | z G, C2- C3 x | %15
 [D,F,]3 [C,G,] [B,,G,]3 [A,,A,] | [G,,G,]2 [F,,F,]2 [E,,E,]4 | %17
 [F,,F,][G,,G,][A,,A,][F,,F,] [G,,-G,]2 [G,,,G,,]2 | [C,,C,]D,PC,B,, [A,,,A,,]4 | %19
 [A,,,A,,]4 [A,,,A,,]4 | [A,,,A,,]4 [A,,E,=G,]4 | [A,,A,]4 [D,,D,]4 | [E,,E,]D,PC,B,, [A,,,A,,]4 | %23
 [A,,,A,,]4 [A,,,A,,]4 | [A,,,A,,]4 [A,,E,=G,]4 | [A,,A,]3 z z2 E,2 | A,,E,A,B, C^G,A,^D, | %27
 E,B,ED (CE)(B,D) | CEA,C G,EB,G, | (^F,A,^D,F,) z B,^C-[CE] | P[B,^D]A,PG,^F, G,2 A,2 | %31
 G,3 G, ^F,3 B, | E,2 B,2 G,2 A,2 | G,3 G, ^F,3 B, | [E,E]2 [B,^D]2 [G,B,E]4 | %35
 [^F,A,B,^D]2 [E,B,E]2 [B,,B,]4 | [E,E]DPCB, [A,,,A,,]4 | [A,,,A,,]4 [A,,,A,,]4 | %38
 [A,,,A,,]4 [A,,E,=G,]4 | [A,,A,]4 [D,,D,]4 | [E,,E,]D,PC,B,, [A,,,A,,]4 | [A,,,A,,]4 [A,,,A,,]4 | %42
 [A,,,A,,]4 [A,,E,=G,]4 | [A,,A,]3 z z2 E,2 | A,,4 ||[K:A] z4 |: A,B,CA, B,2 EE, | F,FPED CDEC | %48
 DCB,A, PG,3 A, | E,DPCB, A,4 | A,,B,,C,A,, B,,2 E,E,, | F,,F,PE,D, C,D,E,C, | D,C,PB,,A,, E,4 |1 %53
 A,,4 z4 :|2 A,,E,A,C PA,4- || A,A,CE PC4 |[I:staff -1] A[EA][Ac][ce][I:staff +1] [A,,A,]4 | %57
 [A,,A,]4 z2 z [A,E] | [G,E]3 [G,B,E] [CE][B,^D] [E,B,E]2 | B,3 [B,,B,] [E,,E,]3 [E,,E,] | %60
 [B,,,B,,]3 [B,,,B,,] [E,,E,]3 G, | A,2 PA,3/2G,/4A,/4 B,2 [A,,A,]2 | [E,,E,]D,PC,B,, A,,4 | %63
 A,B,CA, B,2 EE, | F,FPED CDEC | DCB,A, PG,3 A, | E,DPCB, A,4 | A,,B,,C,A,, B,,2 E,E,, | %68
 F,,F,PE,D, C,D,E,C, | D,C,PB,,A,, E,4 | A,,4[I:staff -1] cBPAG | %71
 A/c/A/F/ F/C/[I:staff +1]A,/ x/[I:staff -1] cBPAG | A/c/A/F/ F/C/[I:staff +1]A,/ x/ x4 | %73
 [B,,,B,,]2 x4 x E,/E,,/ | !/![A,,,A,,G,]2 x4 x D,/D,,/ | !/![G,,,G,,F,]2 x4 x C,/-C,,/- | %76
 [C,,C,]4 C,4 | C,,/^E,,/G,,/C,/ ^E,/G,/[I:staff -1]C/^E/ G/G/c/^e/[I:staff +1] z2 | %78
 B,,,/C,,/G,,/B,,/ C,/^E,/G,/C/[I:staff -1] ^E/G/c/^e/[I:staff +1] z2 | %79
 A,,,/C,,/F,,/A,,/ C,/F,/A,/C/[I:staff -1] F/A/c/f/ [A,CF]2 |[I:staff +1] [B,,D,F,]4 C,4 | %81
 [F,,F,]A,,G,,B,, A,,4 | A,B,CA, B,2 EE, | F,FPED CDEC | DCB,A, PG,3 A, | E,DPCB, A,4 | %86
 A,,B,,C,A,, B,,2 E,E,, | F,,F,PE,D, C,D,E,C, | D,C,PB,,A,, E,4 | A,,4 |] %90
V:5
 x4 |: x8 | x8 | DEFE x4 | x8 | x8 | x8 | D^CDF x2 D2 |1 x8 :|2 x8 || x8 | x8 | x8 | x8 | E4 x4 | %15
 x8 | x8 | x2 cA D2 F2 | x8 | x8 | x8 | DEFE x4 | x8 | x8 | x8 | D^CDF x2 D2 | x8 | x8 | x8 | x8 | %30
 x4[I:staff +1] G,[I:staff -1] E2 ^F- | F^FGE- EE ^D2 | E2 ^D2[I:staff +1] G,[I:staff -1] E2 ^F- | %33
 F^FGE- EE ^D2 | x8 | x4 B2 A2 | x8 | x8 | x8 | DEFE x4 | x8 | x8 | x8 | D^CDF x2 D2 | x4 || %45
[K:A] x4 |: x8 | x8 | x4 E4 | x8 | x8 | x8 | x8 |1 x8 :|2 x8 || x8 | x8 | x8 | x8 | (E P^D2) x x4 | %60
 x8 | x8 | x8 | x8 | x8 | x4 E4 | x8 | x8 | x8 | x8 | x8 | x8 | x8 | %73
 !/![A,B,D]2 [B,FB]2 z/ B/G/E/ E/[I:staff +1]B,/G,/[I:staff -1] x/ | %74
 x2 [A,EA]2 z/ A/F/D/ D/[I:staff +1]A,/F,/[I:staff -1] x/ | %75
 x2 [G,GB]2 z/ G/^E/C/ C/[I:staff +1]G,/^E,/[I:staff -1] x/ | x8 | x8 | x8 | x8 | x8 | x8 | x8 | %83
 x8 | x4 E4 | x8 | x8 | x8 | x8 | x4 |] %90
V:6
 x4 |: x8 | x8 | [A,,A,]4 x4 | x8 | x8 | x8 | [A,,A,]3 z E,,4 |1 z2 A,,,2 x4 :|2 x8 || x4 F,2 G,2 | %11
 x4 F,3 F, | x4 F,2 G,2 | x4 F,3 F, | E,4- E,F,F,[E,G,] | x8 | x8 | x8 | x8 | x8 | x8 | %21
 F,E,D,^C, x4 | x8 | x8 | x8 | F,[E,G,] [D,F,]D,, E,,4 | x8 | x8 | x4 G,2 x2 | x4 E,4 | x8 | x8 | %32
 x8 | x8 | x8 | x8 | x8 | x8 | x8 | F,E,D,^C, x4 | x8 | x8 | x8 | F,[E,G,] [D,F,]D,, E,,4 | %44
 z2 A,,,2 ||[K:A] x4 |: x8 | x8 | x8 | x8 | x8 | x8 | x4 z2 E,,2 |1 z2 A,,,2 x4 :|2 x8 || x8 | x8 | %57
 x8 | x4 F,2 x2 | x8 | x8 | x8 | x8 | x8 | x8 | x8 | x8 | x8 | x8 | x4 z2 E,,2 | z2 A,,,2 z4 | %71
 x3 F,/F,,/ x4 | x3 F,/F,,/ x4 | x8 | x8 | x8 | x4 [G,B,]3 [F,A,] | x8 | x8 | x6 [A,,C,F,]2 | %80
 x4 z2 C,,2 | x8 | x8 | x8 | x8 | x8 | x8 | x8 | x4 z2 E,,2 | z2 A,,,2 |] %90

